static/assets/images/exchanges/bulla.svg

<svg width="365" height="256" viewBox="0 0 365 256" fill="none" xmlns="http://www.w3.org/2000/svg">
<path fill-rule="evenodd" clip-rule="evenodd" d="M360.38 4.08864C356.764 21.2452 355.062 26.6347 350.05 36.8242C340.174 56.8968 315.47 80.1664 291.37 92.0986C266.246 104.535 239.24 109.75 193.229 111.05C135.721 112.677 105.334 107.772 73.2801 91.687C38.3022 74.1368 17.6601 51.9499 7.81695 21.3287C5.02359 12.6352 2.26479 4.29901 1.68503 2.80295C1.1071 1.30686 0.376499 5.30546 0.060269 11.6904C-0.58673 24.8104 4.00587 42.444 12.3732 58.955C27.6758 89.1482 59.1788 116.768 100.698 136.393C110.109 140.841 117.807 144.736 117.807 145.051C117.807 145.365 115.793 150.013 113.331 155.38C101.333 181.525 107.324 211.854 128.727 233.348C152.014 256.73 181.798 262.277 211.418 248.746C222.311 243.77 236.246 231.785 242.255 222.225C253.26 204.722 255.417 179.953 247.864 157.849C245.478 150.868 243.659 145.098 243.821 145.032C301.67 120.783 336.511 91.6035 354.266 52.5301C362.672 34.0352 367.958 3.04409 363.209 0.11545C362.239 -0.482977 360.966 1.30505 360.38 4.08864ZM193.404 145.106C214.322 151.304 227.035 178.054 218.617 198.158C211.52 215.105 198.352 224.038 180.47 224.038C156.386 224.038 139.695 207.706 139.695 184.143C139.695 166.284 151.027 150.155 167.086 145.157C177.562 141.898 182.546 141.887 193.404 145.106Z" fill="white"/>
</svg>

<svg xmlns="http://www.w3.org/2000/svg" fill="none" viewBox="0 0 365 256"><path fill="#fff" fill-rule="evenodd" d="M360.38 4.089c-3.616 17.156-5.318 22.546-10.33 32.735-9.876 20.073-34.58 43.342-58.68 55.275-25.124 12.436-52.13 17.651-98.141 18.951-57.508 1.627-87.895-3.278-119.949-19.363C38.302 74.137 17.66 51.95 7.817 21.329 5.024 12.635 2.265 4.299 1.685 2.803 1.107 1.307.376 5.305.06 11.69c-.647 13.12 3.946 30.754 12.313 47.265 15.303 30.193 46.806 57.813 88.325 77.438 9.411 4.448 17.109 8.343 17.109 8.658s-2.014 4.962-4.476 10.329c-11.998 26.145-6.007 56.474 15.396 77.968 23.287 23.382 53.071 28.929 82.691 15.398 10.893-4.976 24.828-16.961 30.837-26.521 11.005-17.503 13.162-42.272 5.609-64.376-2.386-6.981-4.205-12.751-4.043-12.817 57.849-24.249 92.69-53.429 110.445-92.502 8.406-18.495 13.692-49.486 8.943-52.415-.97-.598-2.243 1.19-2.829 3.974M193.404 145.106c20.918 6.198 33.631 32.948 25.213 53.052-7.097 16.947-20.265 25.88-38.147 25.88-24.084 0-40.775-16.332-40.775-39.895 0-17.859 11.332-33.988 27.391-38.986 10.476-3.259 15.46-3.27 26.318-.051" clip-rule="evenodd"/></svg>
